src/images/benefit-two.svg

<svg width="105" height="84" viewBox="0 0 105 84" fill="none" xmlns="http://www.w3.org/2000/svg">
<path d="M2.05069 31.884H93.1577V44.7341H2.05069V31.884Z" fill="#FA8334"/>
<path d="M97.9226 0H16.8687C12.9665 0 9.79146 3.40486 9.79146 7.59027V16.2732H7.07745C3.17481 16.273 0 19.6781 0 23.8633V76.4097C0 80.5949 3.17481 84 7.07745 84H88.1313C92.0335 84 95.2085 80.5951 95.2085 76.4097V67.727H97.9226C101.825 67.727 105 64.3222 105 60.1367V7.59027C105 3.40508 101.825 0 97.9226 0ZM91.107 76.4097C91.107 78.1697 89.7721 79.6012 88.1313 79.6012H7.07745C5.43662 79.6012 4.10156 78.1697 4.10156 76.4097V23.8633C4.10156 22.1035 5.43662 20.6717 7.07745 20.6717H88.1313C89.7721 20.6717 91.107 22.1033 91.107 23.8633V76.4097ZM100.898 60.1367C100.898 61.8965 99.5634 63.3283 97.9226 63.3283H95.2085V23.8633C95.2085 19.6781 92.0335 16.273 88.1313 16.273H13.893V7.59027C13.893 5.83055 15.2279 4.39876 16.8687 4.39876H97.9226C99.5634 4.39876 100.898 5.83033 100.898 7.59027V60.1367Z" fill="white"/>
<path d="M42.7139 59.2128H32.5822C31.4498 59.2128 30.5315 60.1975 30.5315 61.4122V70.5203C30.5315 71.735 31.4498 72.7196 32.5822 72.7196H42.7139C43.8464 72.7196 44.7647 71.735 44.7647 70.5203V61.4122C44.7647 60.1975 43.8466 59.2128 42.7139 59.2128ZM40.6632 68.3209H34.633V63.6116H40.6632V68.3209Z" fill="white"/>
<path d="M62.6266 59.2128H52.4949C51.3625 59.2128 50.4442 60.1975 50.4442 61.4122V70.5203C50.4442 71.735 51.3625 72.7196 52.4949 72.7196H62.6266C63.7591 72.7196 64.6774 71.735 64.6774 70.5203V61.4122C64.6774 60.1975 63.7591 59.2128 62.6266 59.2128ZM60.5758 68.3209H54.5457V63.6116H60.5758V68.3209Z" fill="white"/>
<path d="M82.5393 59.2128H72.4076C71.2752 59.2128 70.3568 60.1975 70.3568 61.4122V70.5203C70.3568 71.735 71.2752 72.7196 72.4076 72.7196H82.5393C83.6717 72.7196 84.5901 71.735 84.5901 70.5203V61.4122C84.5901 60.1975 83.6717 59.2128 82.5393 59.2128ZM80.4885 68.3209H74.4584V63.6116H80.4885V68.3209Z" fill="white"/>
<path d="M22.8012 59.2128H12.6693C11.5369 59.2128 10.6186 60.1975 10.6186 61.4122V70.5203C10.6186 71.735 11.5369 72.7196 12.6693 72.7196H22.801C23.9335 72.7196 24.8518 71.735 24.8518 70.5203V61.4122C24.852 60.1975 23.9337 59.2128 22.8012 59.2128ZM20.7505 68.3209H14.7201V63.6116H20.7502V68.3209H20.7505Z" fill="white"/>
</svg>

<svg width="105" height="84" fill="none" xmlns="http://www.w3.org/2000/svg"><path d="M2.05 31.884h91.108v12.85H2.05v-12.85z" fill="#FA8334"/><path d="M97.923 0H16.869C12.967 0 9.79 3.405 9.79 7.59v8.683H7.077C3.175 16.273 0 19.678 0 23.863V76.41C0 80.595 3.175 84 7.077 84h81.054c3.903 0 7.078-3.405 7.078-7.59v-8.683h2.714c3.902 0 7.077-3.405 7.077-7.59V7.59C105 3.405 101.825 0 97.923 0zm-6.816 76.41c0 1.76-1.335 3.191-2.976 3.191H7.077c-1.64 0-2.975-1.431-2.975-3.191V23.863c0-1.76 1.335-3.191 2.975-3.191h81.054c1.641 0 2.976 1.431 2.976 3.191V76.41zm9.791-16.273c0 1.76-1.335 3.191-2.975 3.191h-2.715V23.863c0-4.185-3.174-7.59-7.077-7.59H13.893V7.59c0-1.76 1.335-3.191 2.976-3.191h81.054c1.64 0 2.975 1.431 2.975 3.191v52.547z" fill="#fff"/><path d="M42.714 59.213H32.582c-1.132 0-2.05.984-2.05 2.2v9.107c0 1.215.918 2.2 2.05 2.2h10.132c1.132 0 2.05-.985 2.05-2.2v-9.108c0-1.215-.917-2.2-2.05-2.2zm-2.05 9.108h-6.031v-4.71h6.03v4.71zM62.627 59.213H52.495c-1.133 0-2.05.984-2.05 2.2v9.107c0 1.215.917 2.2 2.05 2.2h10.132c1.132 0 2.05-.985 2.05-2.2v-9.108c0-1.215-.918-2.2-2.05-2.2zm-2.051 9.108h-6.03v-4.71h6.03v4.71zM82.54 59.213H72.407c-1.133 0-2.051.984-2.051 2.2v9.107c0 1.215.918 2.2 2.05 2.2H82.54c1.133 0 2.051-.985 2.051-2.2v-9.108c0-1.215-.918-2.2-2.05-2.2zm-2.052 9.108h-6.03v-4.71h6.03v4.71zM22.801 59.213H12.67c-1.132 0-2.05.984-2.05 2.2v9.107c0 1.215.918 2.2 2.05 2.2h10.132c1.133 0 2.05-.985 2.05-2.2v-9.108c.001-1.215-.917-2.2-2.05-2.2zm-2.05 9.108h-6.03v-4.71h6.03v4.71z" fill="#fff"/></svg>
